!!!OTL: No_175_Mīde'_Burial_Song_(b).krn
!!!REG: Great_Lakes
!!!LANG: Non-Tone
!!!LING_GROUP: Algonquin
!!!SOCIAL_FUNCTION: mide songs
**kern
*staff1
=1-
*clefF4
*k[f#c#g#d#a#]
*M2/4
4G#\
4G#\
=2
2d#\
=3
2d#\
=4
8d#\L
8d#\J
(16c#\LK
8.B\J)
=5
2B\
=6
2B\
=7
4d#\
4d#\
=8
2c#\
=9
2c#\
=10
8B\L
8B\J
(16B\LK
8.G#\J)
=11
2G#\
=12
2G#\
=13
4B\
(16B\LK
8.G#\J)
=14
2B\
=15
2B\
=16
8B\L
8B\J
(16B\LK
8.G#\J)
=17
2G#\
=18
2G#\
=19
4G#\
4G#\
=20
2G#\
=21
2G#\
=22
8G#\L
8G#\J
4G#\
=23
2G#\
=24
4G#\
4G#\
=25
2d#\
=26
8d#\L
8d#\J
(16c#\LK
8.B\J)
=27
2B\
=28
2B\
=29
4d#\
4d#\
=30
2c#\
=31
2c#\
=32
8c#\L
8B\J
8.c#\L
16B\Jk
=33
2G#\
=34
4G#\
4G#\
=35
2G#\
=36
2G#\
=37
4d#\
4d#\
=38
2c#\
=39
4.c#\
8c#\
=40
8.B\L
16G#\Jk
4G#\
=41
2G#\
=42
2G#\
=43
4c#\
(8.c#\L
16B\Jk)
=44
4B\
4B\
=45
8B\L
8B\J
(8.B\L
16G#\Jk)
=46
2G#\
=47
2G#\
=48
4G#\
4G#\
=49
2G#\
=50
2G#\
=51||
*M3/4
8G#\L
8G#\J
2G#\
=52
(16G#\LK
(8.D#\J)
2D#\)
==
*-
